usr/share/icons/big-icons/symbolic/status/status-remote-symbolic.svg

<svg width="16" height="16" version="1.1" xmlns="http://www.w3.org/2000/svg">
 <path d="m5 0c-1.108 0-2 0.892-2 2v8c0 1.108 0.892 2 2 2h2.5v3h-6.5v1h14v-1h-6.5v-3h2.5c1.108 0 2-0.892 2-2v-8c0-1.108-0.892-2-2-2h-6zm0 1h6c0.554 0 1 0.446 1 1v8c0 0.554-0.446 1-1 1h-6c-0.554 0-1-0.446-1-1v-8c0-0.554 0.446-1 1-1zm1 2v1h4v-1h-4zm3 2v1h1v-1h-1z" color="#000000" fill="#363636"/>
</svg>

<svg xmlns="http://www.w3.org/2000/svg" width="16" height="16">
<path fill="#fcfcfc" d="M5 0C3.892 0 3 .892 3 2v8c0 1.108.892 2 2 2h2.5v3H1v1h14v-1H8.5v-3H11c1.108 0 2-.892 2-2V2c0-1.108-.892-2-2-2zm0 1h6c.554 0 1 .446 1 1v8c0 .554-.446 1-1 1H5c-.554 0-1-.446-1-1V2c0-.554.446-1 1-1m1 2v1h4V3zm3 2v1h1V5z" color="#000"/>
</svg>
